X:28
T:Runing Footman's Jigg
B:Walsh
M:6/4
L:1/8
N:
K:D
A2| d3 c B2 A3 G F2| E3 F G2 F3 E D2| D2 F2 A2 D2 F2 A2| D2 F2 A2 A4 A2| \
d2 A2 d2 d2 A2 d2| d2 A2 d2 c4| d3 c B2 A3 G F2| E2 e2 A2 c2 d6::\
c2 d2 e2 e2 f2 e2 |e2 d2 c2 B4 A2| A2 c2 e2 A2 c2 e2 |E2 A2 ^G2 A6| \
d3 c B2 A3 G F2| E3 e d2 c3 B A2| d2 f2 a2 e2 f2 d2 | e2 A2 c2 d6:|
